src/view/frontend/web/svg/heroicons/outline/printer.svg

<svg  viewBox="0 0 24 24" fill="none" stroke="currentColor" xmlns="http://www.w3.org/2000/svg">
<path d="M17 17H19C20.1046 17 21 16.1046 21 15V11C21 9.89543 20.1046 9 19 9H5C3.89543 9 3 9.89543 3 11V15C3 16.1046 3.89543 17 5 17H7M9 21H15C16.1046 21 17 20.1046 17 19V15C17 13.8954 16.1046 13 15 13H9C7.89543 13 7 13.8954 7 15V19C7 20.1046 7.89543 21 9 21ZM17 9V5C17 3.89543 16.1046 3 15 3H9C7.89543 3 7 3.89543 7 5V9H17Z"  stroke-width="2" stroke-linecap="round" stroke-linejoin="round"/>
</svg>

<svg xmlns="http://www.w3.org/2000/svg" fill="none" viewBox="0 0 24 24" stroke="currentColor">
  <path stroke-linecap="round" stroke-linejoin="round" stroke-width="2" d="M17 17h2a2 2 0 002-2v-4a2 2 0 00-2-2H5a2 2 0 00-2 2v4a2 2 0 002 2h2m2 4h6a2 2 0 002-2v-4a2 2 0 00-2-2H9a2 2 0 00-2 2v4a2 2 0 002 2zm8-12V5a2 2 0 00-2-2H9a2 2 0 00-2 2v4h10z"/>
</svg>
